X: 742
T: Aine's Invitation
R: reel
M: 4/4
K: Gmajor
d2 cA BG G2|DGBd cA A2|d2 cA BGAF|DEFA G2 GB|
d2 cA BG G2|DGBd cA A2|G2 Bd gdBd|cAFA G4:|
g2 gb a2 af|defd edcA|g2 gb a2 af|defa g2 gf|
g2 gb a2 af|defd edcA|G2 GA (3 BAG Bd|(3 cBA FA G4:|

